X:67
T:Drowsy Maggie
R:Reel
M:4/4
L:1/8
K:Edor
C:Traditional
E2BE dEBE | E2BE AFDF | E2BE dEBE |[1 BABc dAFD :|[2 BABc dAFA |]
|: d2fd c2ec | defg afge |[1 d2fd c2ec | BABc BAFA :|[2 afge fded BABc dAFD |]

%%newpage

